!!!OTL: 199. Sher
!!!Genre:	Sher
!!!Mode:	Minor
!!!Listening/dance:	dance
!!!:	*B-:
!!!One_Mode:	no
**kern
*thru
*I"P1
*clefG2
*k[b-e-]
*B-:
!LO:TX:a:i:t=Bb-major
=10!|:
4.b-
16ccLL
16ddJJ
=11
4.b-
16ccLL
16ddJJ
=12
8b-L
16ccL
16ddJJ
8b-L
16ccL
16ddJJ
=13
16b-LL
16f
16g
16aJJ
16b-LL
16cc
16dd
16ee-JJ
=14
4.ff
8een
=15
4.ff
8een
=16
(16ggLL
16ff)
(16ff
16eenJJ)
(16ggLL
16ff)
(16ff
16eeJJ)
=17
(16ggLL
16ff)
(16ff
16eenJJ)
4ff
=18
(16qqff/LL
16qqgg/
16qqaa/JJ
16bb-LL)
16dd
16ee-X
16ggJJ
16ffLL
16dd
16ee-
16ccJJ
=19
4.ddt
16ccLL
16b-JJ
=20
(8qdd/
16ccLL)
16bn
16cc
16ddJJ
16ee-LL
16f
16g
16aJJ
=21
16b-XLL
16dd
16cc
16ee-JJ
16ddLL
16ff
16ee-
16ggJJ
=22
16ffLL
16bb-
16aa
16ggJJ
16ffLL
16dd
16ee-
16ggJJ
=23
16ffLL
16dd
16ee-
16ccJJ
8ddtL
16ccL
16b-JJ
=24
(8qdd/
16ccLL)
16bn
16cc
16ddJJ
16ee-LL
16f
16g
16aJJ
*>B1
!!!Begin-Modulation1
=25
(16ccLL
16b-XJJ)
4b-
8f
*>B
16gJk
!!!Begin-Modulation
*B-:
!LO:TX:a:i:t=Bb-major
=10!|:
4.b-
16ccLL
16ddJJ
=11
4.b-
16ccLL
16ddJJ
=12
8b-L
16ccL
16ddJJ
8b-L
16ccL
16ddJJ
=13
16b-LL
16f
16g
16aJJ
16b-LL
16cc
16dd
16ee-JJ
=14
4.ff
8een
=15
4.ff
8een
=16
(16ggLL
16ff)
(16ff
16eenJJ)
(16ggLL
16ff)
(16ff
16eeJJ)
=17
(16ggLL
16ff)
(16ff
16eenJJ)
4ff
=18
(16qqff/LL
16qqgg/
16qqaa/JJ
16bb-LL)
16dd
16ee-X
16ggJJ
16ffLL
16dd
16ee-
16ccJJ
=19
4.ddt
16ccLL
16b-JJ
=20
(8qdd/
16ccLL)
16bn
16cc
16ddJJ
16ee-LL
16f
16g
16aJJ
=21
16b-XLL
16dd
16cc
16ee-JJ
16ddLL
16ff
16ee-
16ggJJ
=22
16ffLL
16bb-
16aa
16ggJJ
16ffLL
16dd
16ee-
16ggJJ
=23
16ffLL
16dd
16ee-
16ccJJ
8ddtL
16ccL
16b-JJ
=24
(8qdd/
16ccLL)
16bn
16cc
16ddJJ
16ee-LL
16f
16g
16aJJ
!!!Begin-Modulation1
*>B2
!!!Begin-Modulation2
=26:|!
(16ccLL
16b-JJ)
4b-
8dd
*>C
!!!End-Modulation
*-
